X:940
T:Banks of the Shannon, The
R:jig
D:The Smoky Chimney
Z:transcribed by Dave Marshall
M:6/8
K:D
|: A2A ~g3 | ~a3 efg | ~f3 ged | cAG EFG |
A2A ~g3 | ~a3 efg | fed cAG |1 Adc d2B :|2 Adc d2e |
|: fed edc | ~d3 cAG | ABA ~D3 | f2d ecA |
fed edc | ~d3 cde | fed cAG |1 Adc d2e :|2 Adc d2B |
